16x16/actions/color-mode-invert-text.svg

<svg viewBox="0 0 16 16" xmlns="http://www.w3.org/2000/svg"><path d="m8 2v1h.674l3.826 10h-1.236l-.428-1.123-.629-1.604h-2.207v3.727h6v-12zm0 8.273v-.91h-1.854l1.854-5.003v-1.36h-.674l-3.826 10h1.236l.428-1.123.629-1.604zm0-5.913v5.004h1.854z" fill="#555e70"/></svg>

<svg viewBox="0 0 16 16" xmlns="http://www.w3.org/2000/svg">
    <path d="M8 2v1h.674L12.5 13h-1.236l-.428-1.123-.629-1.604H8V14h6V2zm0 8.273v-.91H6.146L8 4.36V3h-.674L3.5 13h1.236l.428-1.123.629-1.604zM8 4.36v5.004h1.854z" fill="#555e70"/>
</svg>
